X:1
T:Trotting to Larne
T:Going to the Well for Water
T:the Kaiser
C:John T. Blair (1957)
M:9/8
L:1/8
R:slipjig
Z:John Skelton, Milwaukee Summer School
S:Originally in A, transposed by John Skelton, who got the tune from Cathal McConnell
N:TROTTING TO LARNE. Irish, Slip Jig. A Major. Composed by John T. Blair in
N:1957. Ossian OSS 84, Boys of the Lough - "The Open Road." Sarah Bauhan.
N:Paul de Grae notes:
N:AKA "Going to the Well for Water" (also the name of another slide) or "The Kaiser",
N:pronounced "kaysher", the nickname of a local character in Sliabh Luachra.
K:D
A2f A2f-fed | A2f A2f-fed | B2d G2B dcB | A3 Ade fdB |
A2f A2f-fed | B2g B2g ged | c2e A2a bag |1 f3 edc dcB :|2 f3 edc d2c ||
B3 AGF A3 | AGF AGF Adc | B3 AGF A2F | G2E EFD CB,A, |
Adf d2A ded | Bdg d2B ded | cea g2e bcg |1 faf edc d2c |2 f3 dcB |]
